X: 98
T:Reel de Sauvagesse
R:Reel
S:Pierre Schryer
N:The t
N:Follo
Z:Alf 
M:C|
L:1/8
K:A
a3f|:ec (3ABc dB (3cBA|EA(3cBA dB(3cBA|ce(3efg aecA|[1 GBBd cAaf:|[2 GBBd cAAd||
GBBd cBA=G|]|f2ed f2ed|ffed Bcde|f3g aecA|
GBBd cAAd|[d2f2]ed fded|fded Bcde|f3g a2ga|
faea caBg|a2 (3fga|]
